X:1
T: Drumin
C:
R:Strathspey
Q: 128
K:D
M:4/4
L:1/16
|:Dd3 d3B A3F D3F|G3A B3A GFED CE3|Dd3 d3B A3F D3F|GABc d3A F2D2 D4|
Dd3 d3B A3F D3F|G3A B3A GFED CE3|Dd3 d3B A3F D3F|GABc d3A F2D2 D2g2|
f3g a2f2 d2f2 A2d2|g3a b2g2 e2g2 B2e2|f3g a2f2 d2f2 A2d2|cBA^G A2a2 fd3 d3=g|
f3g a2f2 d2f2 D2d2|g3a b2g2 e2g2 E2e2|fgag fedc dcBA BAGF|GABc dBAG FD3 D4:|
